src/icons/svg-colors/advantages3.svg

<svg width="60" height="41" viewBox="0 0 60 41" fill="none" xmlns="http://www.w3.org/2000/svg">
<g clip-path="url(#clip0_47:6908)">
<path d="M43.6689 1.6709H3.66895V28.1423H43.6689V1.6709Z" fill="white"/>
<path d="M44.8522 27.3141C44.8522 28.4186 43.9568 29.3141 42.8522 29.3141H4.48535C3.38078 29.3141 2.48535 28.4186 2.48535 27.3141V2.5C2.48535 1.39543 3.38078 0.5 4.48535 0.5H42.8522C43.9568 0.5 44.8522 1.39543 44.8522 2.5V27.3141ZM4.85222 24.9714C4.85222 26.076 5.74765 26.9714 6.85222 26.9714H40.4854C41.5899 26.9714 42.4854 26.076 42.4854 24.9714V4.84261C42.4854 3.73804 41.5899 2.84261 40.4854 2.84261H6.85221C5.74764 2.84261 4.85222 3.73804 4.85222 4.84261V24.9714Z" fill="#060F42"/>
<path d="M58.4618 33.3552H43.6689V8.81641H55.0891L58.4618 21.0565V26.7373V27.5573V28.5529V33.3552Z" fill="white"/>
<path d="M57.4557 32.5948H52.2486L51.8936 32.1263C51.8936 32.1263 51.1835 31.1893 49.9409 31.1893C48.6391 31.1893 47.9291 32.1263 47.9291 32.1263L47.574 32.6534H44.793V30.3108H46.4498C47.1598 29.608 48.3433 28.8467 50.0001 28.8467C51.5977 28.8467 53.1953 29.608 53.8462 30.3108H57.4557V32.5948Z" fill="#FFCD1B"/>
<path d="M59.6451 32.5269C59.6451 33.6315 58.7497 34.5269 57.6451 34.5269H44.4853C43.3808 34.5269 42.4854 33.6315 42.4854 32.5269V9.64551C42.4854 8.54094 43.3808 7.64551 44.4854 7.64551H54.4536C55.3533 7.64551 56.1422 8.24623 56.3816 9.11348L59.5731 20.6787C59.6209 20.852 59.6451 21.0309 59.6451 21.2107V32.5269ZM44.8522 30.1843C44.8522 31.2889 45.7476 32.1843 46.8522 32.1843H55.2783C56.3828 32.1843 57.2783 31.2889 57.2783 30.1843V21.5013C57.2783 21.323 57.2544 21.1455 57.2073 20.9735L54.6042 11.4602C54.3663 10.5909 53.5764 9.98811 52.6751 9.98811H46.8522C45.7476 9.98811 44.8522 10.8835 44.8522 11.9881V30.1843Z" fill="#060F42"/>
<path d="M15.1601 7.52734H11.4678C10.3632 7.52734 9.46777 8.42277 9.46777 9.52734V10.2126C9.46777 11.3171 10.3632 12.2126 11.4678 12.2126H15.1601C16.2647 12.2126 17.1601 11.3171 17.1601 10.2126V9.52734C17.1601 8.42277 16.2646 7.52734 15.1601 7.52734Z" fill="#FFCD1B"/>
<path d="M41.6688 28.1426H3.18359C2.07902 28.1426 1.18359 29.038 1.18359 30.1426V31.3549C1.18359 32.4594 2.07902 33.3549 3.18359 33.3549H41.6688C42.7734 33.3549 43.6688 32.4594 43.6688 31.3549V30.1426C43.6688 29.038 42.7734 28.1426 41.6688 28.1426Z" fill="white"/>
<path d="M44.8521 32.5266C44.8521 33.6312 43.9566 34.5266 42.8521 34.5266H2C0.895432 34.5266 0 33.6312 0 32.5266V28.9717C0 27.8671 0.895431 26.9717 2 26.9717H42.8521C43.9566 26.9717 44.8521 27.8671 44.8521 28.9717V32.5266ZM2.36686 30.7491C2.36686 31.5416 3.00927 32.184 3.80171 32.184H41.0504C41.8428 32.184 42.4852 31.5416 42.4852 30.7491C42.4852 29.9567 41.8428 29.3143 41.0504 29.3143H3.80171C3.00927 29.3143 2.36686 29.9567 2.36686 30.7491Z" fill="#060F42"/>
<path d="M54.0983 17.4079C54.3645 18.6527 53.4155 19.8262 52.1425 19.8262H48.3906C47.2861 19.8262 46.3906 18.9307 46.3906 17.8262V13.8027C46.3906 12.6982 47.2861 11.8027 48.3906 11.8027H51.282C52.2254 11.8027 53.0405 12.4619 53.2378 13.3845L54.0983 17.4079Z" fill="#01579B"/>
<path d="M9.40829 39.3285C11.4017 39.3285 13.0178 37.7291 13.0178 35.7561C13.0178 33.783 11.4017 32.1836 9.40829 32.1836C7.41484 32.1836 5.79883 33.783 5.79883 35.7561C5.79883 37.7291 7.41484 39.3285 9.40829 39.3285Z" fill="white"/>
<path d="M9.40813 40.5003C6.74541 40.5003 4.61523 38.3919 4.61523 35.7565C4.61523 33.121 6.74541 31.0127 9.40813 31.0127C12.0709 31.0127 14.201 33.121 14.201 35.7565C14.201 38.3919 12.0117 40.5003 9.40813 40.5003ZM9.40813 33.3553C8.04719 33.3553 6.9821 34.4095 6.9821 35.7565C6.9821 37.1035 8.04719 38.1576 9.40813 38.1576C10.7691 38.1576 11.8342 37.1035 11.8342 35.7565C11.8342 34.4095 10.7099 33.3553 9.40813 33.3553Z" fill="#060F42"/>
<path d="M31.1241 39.3285C33.1176 39.3285 34.7336 37.7291 34.7336 35.7561C34.7336 33.783 33.1176 32.1836 31.1241 32.1836C29.1307 32.1836 27.5146 33.783 27.5146 35.7561C27.5146 37.7291 29.1307 39.3285 31.1241 39.3285Z" fill="white"/>
<path d="M31.124 40.5003C28.4612 40.5003 26.3311 38.3919 26.3311 35.7565C26.3311 33.121 28.4612 31.0127 31.124 31.0127C33.7867 31.0127 35.9169 33.121 35.9169 35.7565C35.9169 38.3919 33.7275 40.5003 31.124 40.5003ZM31.124 33.3553C29.763 33.3553 28.6979 34.4095 28.6979 35.7565C28.6979 37.1035 29.763 38.1576 31.124 38.1576C32.4849 38.1576 33.55 37.1035 33.55 35.7565C33.55 34.4095 32.4257 33.3553 31.124 33.3553Z" fill="#060F42"/>
<path d="M49.9415 39.3285C51.935 39.3285 53.551 37.7291 53.551 35.7561C53.551 33.783 51.935 32.1836 49.9415 32.1836C47.948 32.1836 46.332 33.783 46.332 35.7561C46.332 37.7291 47.948 39.3285 49.9415 39.3285Z" fill="white"/>
<path d="M49.9413 40.5003C47.2786 40.5003 45.1484 38.3919 45.1484 35.7565C45.1484 33.121 47.2786 31.0127 49.9413 31.0127C52.6041 31.0127 54.7342 33.121 54.7342 35.7565C54.7342 38.3919 52.6041 40.5003 49.9413 40.5003ZM49.9413 33.3553C48.5804 33.3553 47.5153 34.4095 47.5153 35.7565C47.5153 37.1035 48.5804 38.1576 49.9413 38.1576C51.3023 38.1576 52.3674 37.1035 52.3674 35.7565C52.3674 34.4095 51.3023 33.3553 49.9413 33.3553Z" fill="#060F42"/>
<path d="M58.8287 23.1064H56.9701C56.3232 23.1064 55.7988 23.6309 55.7988 24.2777C55.7988 24.9246 56.3232 25.4491 56.9701 25.4491H58.8287C59.4756 25.4491 60 24.9246 60 24.2777C60 23.6309 59.4756 23.1064 58.8287 23.1064Z" fill="#060F42"/>
<path d="M9.4088 37.1032C10.1604 37.1032 10.7697 36.5001 10.7697 35.7562C10.7697 35.0123 10.1604 34.4092 9.4088 34.4092C8.65717 34.4092 8.04785 35.0123 8.04785 35.7562C8.04785 36.5001 8.65717 37.1032 9.4088 37.1032Z" fill="#060F42"/>
<path d="M31.1246 37.1032C31.8762 37.1032 32.4856 36.5001 32.4856 35.7562C32.4856 35.0123 31.8762 34.4092 31.1246 34.4092C30.373 34.4092 29.7637 35.0123 29.7637 35.7562C29.7637 36.5001 30.373 37.1032 31.1246 37.1032Z" fill="#060F42"/>
<path d="M49.941 37.1032C50.6927 37.1032 51.302 36.5001 51.302 35.7562C51.302 35.0123 50.6927 34.4092 49.941 34.4092C49.1894 34.4092 48.5801 35.0123 48.5801 35.7562C48.5801 36.5001 49.1894 37.1032 49.941 37.1032Z" fill="#060F42"/>
</g>
<defs>
<clipPath id="clip0_47:6908">
<rect width="60" height="40" fill="white" transform="translate(0 0.5)"/>
</clipPath>
</defs>
</svg>

<svg xmlns="http://www.w3.org/2000/svg" width="60" height="41" viewBox="0 0 60 41"><g><g><g/><g><g/><g><path fill="#fff" d="M43.67 1.67h-40v26.471h40z"/></g><g><path fill="#060f42" d="M44.857 27.314a2 2 0 0 1-2 2H4.49a2 2 0 0 1-2-2V2.5a2 2 0 0 1 2-2h38.367a2 2 0 0 1 2 2zm-40-2.343a2 2 0 0 0 2 2H40.49a2 2 0 0 0 2-2V4.843a2 2 0 0 0-2-2H6.857a2 2 0 0 0-2 2z"/></g></g><g><g><path fill="#fff" d="M58.463 33.359H43.67V8.82h11.42l3.373 12.24v7.497z"/></g><g><path fill="#ffcd1b" d="M57.453 32.598h-5.207l-.355-.468s-.71-.937-1.953-.937c-1.302 0-2.012.937-2.012.937l-.355.527H44.79v-2.343h1.657a4.99 4.99 0 0 1 3.55-1.464c1.598 0 3.195.761 3.846 1.464h3.61z"/></g><g><path fill="#060f42" d="M59.65 32.531a2 2 0 0 1-2 2H44.49a2 2 0 0 1-2-2V9.65a2 2 0 0 1 2-2h9.968a2 2 0 0 1 1.928 1.468l3.192 11.565a2 2 0 0 1 .072.532zM44.857 30.19a2 2 0 0 0 2 2h8.426a2 2 0 0 0 2-2v-8.683a2 2 0 0 0-.071-.528l-2.603-9.513a2 2 0 0 0-1.93-1.472h-5.822a2 2 0 0 0-2 2z"/></g></g><g/><g><path fill="#ffcd1b" d="M15.162 7.53H11.47a2 2 0 0 0-2 2v.685a2 2 0 0 0 2 2h3.692a2 2 0 0 0 2-2V9.53a2 2 0 0 0-2-2z"/></g><g><g><path fill="#fff" d="M41.665 28.14H3.18a2 2 0 0 0-2 2v1.212a2 2 0 0 0 2 2h38.485a2 2 0 0 0 2-2V30.14a2 2 0 0 0-2-2z"/></g><g><path fill="#060f42" d="M44.852 32.525a2 2 0 0 1-2 2H2a2 2 0 0 1-2-2V28.97a2 2 0 0 1 2-2h40.852a2 2 0 0 1 2 2zM2.367 30.747c0 .793.642 1.435 1.435 1.435H41.05a1.435 1.435 0 0 0 0-2.87H3.802c-.793 0-1.435.643-1.435 1.435z"/></g></g><g><path fill="#01579b" d="M54.098 17.405a2 2 0 0 1-1.956 2.418H48.39a2 2 0 0 1-2-2V13.8a2 2 0 0 1 2-2h2.891a2 2 0 0 1 1.956 1.582z"/></g><g><g><path fill="#fff" d="M9.41 39.325c1.993 0 3.609-1.6 3.609-3.573 0-1.973-1.616-3.572-3.61-3.572-1.993 0-3.609 1.6-3.609 3.572 0 1.974 1.616 3.573 3.61 3.573z"/></g><g><path fill="#060f42" d="M9.413 40.498c-2.663 0-4.793-2.109-4.793-4.744 0-2.636 2.13-4.744 4.793-4.744 2.663 0 4.793 2.108 4.793 4.744 0 2.635-2.19 4.744-4.793 4.744zm0-7.145c-1.361 0-2.426 1.054-2.426 2.4 0 1.348 1.065 2.402 2.426 2.402 1.36 0 2.426-1.054 2.426-2.401 0-1.347-1.124-2.401-2.426-2.401z"/></g></g><g><g><path fill="#fff" d="M31.12 39.325c1.993 0 3.609-1.6 3.609-3.573 0-1.973-1.616-3.572-3.61-3.572-1.993 0-3.609 1.6-3.609 3.572 0 1.974 1.616 3.573 3.61 3.573z"/></g><g><path fill="#060f42" d="M31.123 40.498c-2.663 0-4.793-2.109-4.793-4.744 0-2.636 2.13-4.744 4.793-4.744 2.663 0 4.793 2.108 4.793 4.744 0 2.635-2.19 4.744-4.793 4.744zm0-7.145c-1.361 0-2.426 1.054-2.426 2.4 0 1.348 1.065 2.402 2.426 2.402 1.36 0 2.426-1.054 2.426-2.401 0-1.347-1.124-2.401-2.426-2.401z"/></g></g><g><g><path fill="#fff" d="M49.94 39.325c1.993 0 3.609-1.6 3.609-3.573 0-1.973-1.616-3.572-3.61-3.572-1.993 0-3.609 1.6-3.609 3.572 0 1.974 1.616 3.573 3.61 3.573z"/></g><g><path fill="#060f42" d="M49.943 40.498c-2.663 0-4.793-2.109-4.793-4.744 0-2.636 2.13-4.744 4.793-4.744 2.663 0 4.793 2.108 4.793 4.744 0 2.635-2.13 4.744-4.793 4.744zm0-7.145c-1.361 0-2.426 1.054-2.426 2.4 0 1.348 1.065 2.402 2.426 2.402 1.36 0 2.426-1.054 2.426-2.401 0-1.347-1.065-2.401-2.426-2.401z"/></g></g><g><path fill="#060f42" d="M58.83 23.11H56.97a1.171 1.171 0 0 0 0 2.343h1.859a1.171 1.171 0 0 0 0-2.343z"/></g><g><path fill="#060f42" d="M9.41 37.104c.753 0 1.362-.603 1.362-1.347s-.61-1.347-1.361-1.347c-.752 0-1.361.603-1.361 1.347s.61 1.347 1.36 1.347z"/></g><g><path fill="#060f42" d="M31.12 37.104c.753 0 1.362-.603 1.362-1.347s-.61-1.347-1.361-1.347c-.752 0-1.361.603-1.361 1.347s.61 1.347 1.361 1.347z"/></g><g><path fill="#060f42" d="M49.941 37.104c.752 0 1.36-.603 1.36-1.347s-.608-1.347-1.36-1.347c-.752 0-1.361.603-1.361 1.347s.61 1.347 1.361 1.347z"/></g></g></g></svg>
